X:1
T:Sommerlied
T:bearbeitet von Carl Thiel (1862-1939)
T:Volkslied, vor 1545
T:Sommerlied
T:CPDL - Creative Commons Attribution Non Commercial 3.0
T:CPDL - Creative Commons Attribution Non Commercial 3.0
T:CPDL - Creative Commons Attribution Non Commercial 3.0
C:Carl Thiel
Z:CPDL - Creative Commons Attribution Non Commercial 3.0
%%score [ 1 2 3 4 ]
L:1/8
Q:1/4=144
M:4/4
K:F
V:1 treble nm="Sopran"
V:2 treble nm="Alt"
V:3 treble-8 nm="Tenor"
V:4 bass nm="Bass"
V:1
!mf!"^Lebhaft" F2 | F2 F2!<(! A2 F2!<)! | c4 c2 f2 | e2 c2!>(! d2 cB!>)! | A4 z2 F2 | %5
w: 1.~Herz-|lich tut mich er-|freu- en die|fröh- lich Som- mer- *|zeit, all|
w: 2.~Der|Ku- ckuck mit seim|Schrei- en macht|fröh- lich je- der- *|mann, des|
w: 3.~Es|grü- net in den|Wäl- dern, die|Bäu- me blü- hen _|frei, die|
w: 4.~Da-|rum lob ich den|Som- mer, da-|zu den Mai- en _|gut, der|
!<(! c2 d2 e2!<)! c2 |!f!!>(! f4 e2!>)! d2 | c2 A2 B2 G2 | F4 z2!p! F2 | c2 c2!<(! B2 A2!<)! | %10
w: mein Ge- blüt er-|neu- en, der|1.~Mai viel Wol- lust|beut. Die|Lerch tut sich er-|
w: A- bends fröh- lich|rei- hen die|2.~Maid- lein wohl- ge-|tan; spa-|zie- ren zu den|
w: Rös- lein auf den|Fel- dern von|3.~Far- ben man- cher-|lei. Ein|Blüm- lein steht im|
w: wendt uns al- len|Kum- mer und|4.~bringt uns fro- hen|Mut. Der|Zeit will ich ge-|
!>(! B4 A2!>)! |!<(! FG | A2!<)! d2 c2 B2 |!<(! G4!<)!!>(! d4!>)! | c2 c2 B2 A2 | %15
w: schwin- gen|mit _|ih- rem hel- len|Schall, lieb-|lich die Vög- lein|
w: Bron- nen|pflegt _|man in die- ser|Zeit, all|Welt sucht Freud und|
w: Gar- ten,|das _|heißt Ver- giss- nicht-|mein, das|ed- le Kraut Weg-|
w: nie- ßen,|die- *|weil ich Pfen- nig|hab, und|wen es tut ver-|
!<(! F4 A2!<)!!f! d2 | c2 A2 B2 G2 | F8- | F4 z2 |] %19
w: sin- gen, vor-|aus die ~~~~Nach- ti-|gall.|_|
w: Won- nen mit|Rei- sen ~~~~fern und|weit.|_|
w: war- ten macht|gu- ten Au- gen-|schein.|_|
w: drie- ßen, der|fall die Stie- gen|ab.|_|
V:2
!mf! F2 | D2 C2 F2 F2 | (F2 E2) F2 FG | A2 A2 G2 G2 | F4 z2 F2 | E2 G2 G2 A2 |!f! A4 G2 BA | %7
 G2 F2 D2 E2 | F4 z2!p! FA | G2 FE DE F2 | (F2 GF) E2 | DE | F2 F2 GF ED | EFGA (B3 A) | %14
 G2 FE D2 E2 | (F2 ED) C2!f! F2 | E2 F2 F2 E2 | F2 CD C2 B,2 | C4 z2 |] %19
V:3
!mf! A2 | B2 A2 c2 cd | (c2 B2) A2 A=B | cd ef d2 e2 | f2 AB c2 d2 | (c3 =B c2) e2 | %6
w: 1.~Herz-|lich tut mich er- *|freu- * en die _|fröh- * lich _ Som- mer-|zeit, all _ mein Ge-|blüt _ _ er-|
w: 2.~Der|Ku- ckuck mit seim _|Schrei- * en macht _|fröh- * lich _ je- der-|mann, des _ A- bends|fröh- * * lich|
w: 3.~Es|grü- net in den _|Wäl- * dern, die _|Bäu- * me _ blü- hen|frei, die _ Rös- lein|auf _ _ den|
w: 4.~Da-|rum lob ich den _|Som- * mer, da- *|zu _ den _ Mai- en|gut, der _ wendt uns|al- * * len|
!f! (d2 cd) e2 f2 | e2 cd B2 c2 | A2!p! cd c4- | c2 A2 B2 c2 | d4 ^c2 | d2 | c2 B2 GA B2 | %13
w: neu- * * en, der|1.~Mai viel- * Wol- lust|beut. Die _ Lerch|_ tut sich er-|schwin- gen|mit|ih- rem hel _ len|
w: rei- * * hen die|2.~Maid- lein _ wohl- ge-|tan; spa- * zie-|* ren zu den|Bron- nen|pflegt|man in die- * ser|
w: Fel- * * dern von|3.~Far- ben _ man- cher-|lei. Ein _ Blüm-|* lein steht im|Gar- ten,|das|heißt Ver- giss- * nicht-|
w: Kum- * * mer und|4.~bringt uns _ fro- hen|Mut. Der _ Zeit|_ will ich ge-|nie- ßen,|die-|weil ich Pfen- * nig|
 (cd e2) f4 | c2 A2 B2 c2 | (A3 B) A2!f! A=B | c2 c2 Bd c2 | A2 AB A2 G2 | A4 z2 |] %19
w: Schall, _ _ lieb-|lich die Vög- lein|sin- * gen, vor- *|aus die Nach- * ti-|gall, die _ Nach- ti-|gall.|
w: Zeit, _ _ all|Welt sucht Freud und|Won- * nen mit _|Rei- sen fern _ und|weit, fern _ _ und|weit,|
w: mein, _ _ das|ed- le Kraut Weg-|war- * ten macht _|gu- ten Au- * gen-|schein, Au- * * gen-|schein.|
w: hab, _ _ und|wen es tut ver-|drie- * ßen, der _|fall die Stie- * gen|ab, die _ Stie- gen|ab.|
V:4
!mf! F,2 | F,2 F,2 F,G, A,B, | (A,2 G,2) F,2 D,2 | A,2 A,2 B,2 C2 | F,4 z2 D,2 | A,2 G,2 CB, A,G, | %6
w: ||||* 1.~all|mein Ge- blüt _ er- *|
w: ||||* 2.~des|A- bends fröh- * lich _|
w: ||||* 3.~die|Rös- lein auf _ den _|
w: ||||* 4.~der|wendt uns al- * len _|
!f! F,G,A,=B, C2 D,2 | E,2 F,2 G,2 C,2 | F,2!p! A,B, (A,2 F,2 | E,2) F,2 G,2 A,2 | G,4 A,2 | B,2 | %12
w: neu- * * * en, *||||||
w: rei- * * * hen *||||||
w: Fel- * * * dern *||||||
w: Kum- * * * mer *||||||
 F,2 D,2 E,F, G,2 | (C,2 C2) (B,2 D,2) | E,2 F,2 G,2 C,2 | (D,2 C,B,,) F,2!f! D,2 | %16
w: ||||
w: ||||
w: ||||
w: ||||
 A,2 F,E, D,B,, C,2 | F,8- | F,4 z2 |] %19
w: |||
w: |||
w: |||
w: |||

